lib/assets/icons/svg/outlined-action-visibilityoff.svg

<svg xmlns="http://www.w3.org/2000/svg" viewBox="0 0 24 24"><path d="M12.039 19.34a9.698 9.698 0 0 1-4-.86.5.5 0 0 1-.26-.66.51.51 0 0 1 .66-.25 8.792 8.792 0 0 0 3.6.77 8.999 8.999 0 0 0 8.38-5.87 1.38 1.38 0 0 0 0-.94 8.993 8.993 0 0 0-2.3-3.37.502.502 0 1 1 .69-.73 10.31 10.31 0 0 1 2.51 3.73c.19.53.19 1.11 0 1.64a10 10 0 0 1-9.28 6.54zm-6.41-2.51a.481.481 0 0 1-.34-.14 10.111 10.111 0 0 1-2.6-3.87c-.2-.528-.2-1.112 0-1.64a9.999 9.999 0 0 1 9.35-6.52 9.997 9.997 0 0 1 4.13.91.49.49 0 0 1 .24.66.51.51 0 0 1-.66.25 8.84 8.84 0 0 0-3.71-.82 9 9 0 0 0-8.37 5.87c-.12.302-.12.638 0 .94a9.083 9.083 0 0 0 2.3 3.49.5.5 0 0 1 0 .71.519.519 0 0 1-.34.16zm2.86-2.89a.509.509 0 0 1-.45-.31 4.24 4.24 0 0 1 .07-3.26 4.19 4.19 0 0 1 2.33-2.21 4.251 4.251 0 0 1 3.08 0 .5.5 0 1 1-.37.93c-2.329-.892-4.751 1.072-4.359 3.535.035.217.091.43.169.635a.5.5 0 0 1-.29.65zm3.49 2.39a4.104 4.104 0 0 1-1.57-.31.49.49 0 0 1-.28-.64.5.5 0 0 1 .65-.29c.773.31 1.637.31 2.41 0a3.25 3.25 0 0 0 1.85-4.22.503.503 0 0 1 .93-.38 4.26 4.26 0 0 1-2.37 5.53 4.321 4.321 0 0 1-1.62.31zm-6.38 2.56a.518.518 0 0 1-.35-.14.5.5 0 0 1 0-.71l12.72-12.72a.5.5 0 0 1 .71 0 .51.51 0 0 1 0 .71L5.949 18.75a.498.498 0 0 1-.35.14z"/></svg>

<svg viewBox="0 0 24 24" xmlns="http://www.w3.org/2000/svg">
  <path  d="M 12.039 19.34 C 10.66 19.341 9.296 19.048 8.039 18.48 C 7.784 18.37 7.668 18.074 7.779 17.82 C 7.897 17.573 8.188 17.463 8.439 17.57 C 9.571 18.078 10.798 18.34 12.039 18.34 C 15.781 18.316 19.118 15.979 20.419 12.47 C 20.529 12.166 20.529 11.834 20.419 11.53 C 19.92 10.245 19.134 9.092 18.119 8.16 C 17.838 7.894 17.95 7.424 18.32 7.314 C 18.492 7.262 18.679 7.307 18.809 7.43 C 19.91 8.474 20.767 9.747 21.319 11.16 C 21.509 11.69 21.509 12.27 21.319 12.8 C 19.883 16.695 16.19 19.297 12.039 19.34 Z M 5.629 16.83 C 5.502 16.83 5.379 16.78 5.289 16.69 C 4.133 15.62 3.242 14.295 2.689 12.82 C 2.489 12.292 2.489 11.708 2.689 11.18 C 4.141 7.269 7.867 4.67 12.039 4.66 C 13.465 4.665 14.873 4.976 16.169 5.57 C 16.42 5.683 16.529 5.982 16.409 6.23 C 16.291 6.477 16 6.587 15.749 6.48 C 14.586 5.941 13.32 5.661 12.039 5.66 C 8.301 5.688 4.969 8.025 3.669 11.53 C 3.549 11.832 3.549 12.168 3.669 12.47 C 4.154 13.796 4.941 14.991 5.969 15.96 C 6.166 16.156 6.166 16.474 5.969 16.67 C 5.88 16.764 5.758 16.821 5.629 16.83 Z M 8.489 13.94 C 8.292 13.933 8.116 13.812 8.039 13.63 C 7.627 12.577 7.652 11.404 8.109 10.37 C 8.561 9.353 9.4 8.558 10.439 8.16 C 11.43 7.775 12.528 7.775 13.519 8.16 C 13.877 8.302 13.947 8.779 13.644 9.018 C 13.504 9.129 13.315 9.156 13.149 9.09 C 10.82 8.198 8.398 10.162 8.79 12.625 C 8.825 12.842 8.881 13.055 8.959 13.26 C 9.06 13.52 8.93 13.812 8.669 13.91 Z M 11.979 16.33 C 11.44 16.331 10.907 16.225 10.409 16.02 C 10.153 15.922 10.027 15.634 10.129 15.38 C 10.227 15.119 10.519 14.989 10.779 15.09 C 11.552 15.4 12.416 15.4 13.189 15.09 C 14.869 14.439 15.698 12.546 15.039 10.87 C 14.893 10.512 15.189 10.13 15.572 10.182 C 15.75 10.207 15.901 10.324 15.969 10.49 C 16.838 12.671 15.778 15.145 13.599 16.02 C 13.084 16.226 12.534 16.332 11.979 16.33 Z M 5.599 18.89 C 5.469 18.889 5.344 18.839 5.249 18.75 C 5.052 18.554 5.052 18.236 5.249 18.04 L 17.969 5.32 C 18.165 5.123 18.483 5.123 18.679 5.32 C 18.871 5.518 18.871 5.832 18.679 6.03 L 5.949 18.75 C 5.855 18.841 5.729 18.891 5.599 18.89 Z"/>
</svg>
